svgs/light/circle-camera.svg

<svg xmlns="http://www.w3.org/2000/svg" viewBox="0 0 512 512"><!-- Font Awesome Pro 6.0.0-alpha2 by @fontawesome - https://fontawesome.com License - https://fontawesome.com/license (Commercial License) --><path d="M256 224C238.334 224 224 238.334 224 256S238.334 288 256 288S288 273.666 288 256S273.666 224 256 224ZM256 16C123.451 16 16 123.451 16 256S123.451 496 256 496S496 388.549 496 256S388.549 16 256 16ZM256 464C141.309 464 48 370.691 48 256S141.309 48 256 48S464 141.309 464 256S370.691 464 256 464ZM336 160H316L309.812 143.562C306.312 134.188 297.375 128 287.375 128H224.625C214.625 128 205.625 134.188 202.125 143.562L196 160H176C149.49 160 128 181.49 128 208V304C128 330.51 149.49 352 176 352H336C362.51 352 384 330.51 384 304V208C384 181.49 362.51 160 336 160ZM352 304C352 312.822 344.822 320 336 320H176C167.178 320 160 312.822 160 304V208C160 199.178 167.178 192 176 192H218.225L230.15 160H281.809L293.854 192H336C344.822 192 352 199.178 352 208V304Z"/></svg>

<svg xmlns="http://www.w3.org/2000/svg" viewBox="0 0 512 512"><!--! Font Awesome Pro 6.3.0 by @fontawesome - https://fontawesome.com License - https://fontawesome.com/license (Commercial License) Copyright 2023 Fonticons, Inc. --><path d="M256 224C238.3 224 224 238.3 224 256s14.33 32 32 32s32-14.33 32-32S273.7 224 256 224zM336 160h-20l-6.188-16.44C306.3 134.2 297.4 128 287.4 128H224.6c-10 0-19 6.188-22.5 15.56L196 160H176C149.5 160 128 181.5 128 208v96C128 330.5 149.5 352 176 352h160c26.51 0 48-21.49 48-48v-96C384 181.5 362.5 160 336 160zM352 304c0 8.822-7.178 16-16 16h-160C167.2 320 160 312.8 160 304v-96C160 199.2 167.2 192 176 192h42.22l11.93-32h51.66l12.04 32H336C344.8 192 352 199.2 352 208V304zM256 0C114.6 0 0 114.6 0 256s114.6 256 256 256s256-114.6 256-256S397.4 0 256 0zM256 480c-123.5 0-224-100.5-224-224s100.5-224 224-224s224 100.5 224 224S379.5 480 256 480z"/></svg>
